setcps(130/60/4)

d1 $ stack [
   sound "bd*4"
   ,sound "~ cp:3"
     # speed 0.9
   ,sound "hc(4, 8, 1)"
     # speed 1.2
   -- ,sound "[hh:2 <hh:3 hh:0>]*4"
   -- ,sound "~ hh*4"
 ]
  # gain 1.1
  # shape 0.3


d2 $ sound "bass*8"
  # gain 1.4
  

d3 $ slow 2
  $ n (
  cat [
    "g'maj7 _ _ _ g'maj7 _ _ _",
    "g'maj7 _ _ _ f'maj7 _ g'maj7 _"
  ])
  # sound "supervibe"
  # gain 0.8
  # lpf 1000
  # shape 0.2
  # room 0.7
  # sz 0.9
  # delay 0.5
  # delayfb 0.7

d4 $ slow 2
  $ n (
  cat [
    "~ [2 2] ~ [2 1]",
    "~ [3 4] ~ [4 4]",
    "~ [2 4] ~ [2 4]",
    "~ [4 4] ~ [6 5]"
  ])
  # sound "notes"
  # gain 1.2

  
d5 $ slow 2
  $ n (
  scale "chromatic" (
      cat [
          "~ 16 17 16 _ 14 14 12 12 16 16 17 16 9 14 12",
          "~ 16 17 16 _ 14 14 12 12 16 16 17 19 14 14 12"
  ]))
  # sound "superpwm"
  # room 0.6
  # sz 0.6
  # delay 0.5
  # delayfb 0.9
  # voice 4
  # gain 1



  

hush

panic
